X:1
T:Never from Thee Will We Stray
T:Never from Thee Will We Stray
T:George Frederick Root
T:Sophia Taylor Griswold, 1870
T:Public Domain Courtesy of the Cyber Hymnal™
C:George Frederick Root
Z:Public Domain
Z:Courtesy of the Cyber Hymnal™
%%score ( 1 2 ) ( 3 4 )
L:1/8
Q:1/4=88
M:6/8
K:G
V:1 treble 
V:2 treble 
V:3 bass 
V:4 bass 
V:1
 [B,D][DB][DB] [DB][DA][DG] | [DF][Fc][Fc] [Fc]3 | D[Dc][Dc] [Dc][DB][DA] | [DG][Dd][Dd] [Dd]3 | %4
w: 1.~Ten- der- ly guide us, O|Shep- herd of Love,|To the green pas- tures and|wa- ters a- bove,|
w: 2.~What tho’ the hea- vens with|clouds be o’er- cast,|Fear- ful the tem- pest and|bit- ter the blast;|
w: 3.~O- ver our weak- ness Thy|strength hath been cast,|Keep us in meek- ness, Thine|own till the last;|
 [B,D][DB][DB] [DB][DA][DG] | [DF][Fc][Fc] [Fc]3 | D[DF][FA] [Ac][DB][DA] | [DG]3- [DG]2 z || %8
w: Guard- ing us ev- er by|night and by day,|Ne- ver from Thee will we|stray. *|
w: What tho’ the ri- ver of|death bar the way,|Ne- ver from Thee will we|stray. *|
w: Then, safe- ly fold- ed, where|Thou art the day,|Ne- ver from Thee will we|stray. *|
"^Refrain" [CE] [Ec]2- [Ec]3 | D [DB]2- [DB]3 | D[DF][FA] [Ac][DB][DA] | D[DG][DA] [DB]3 | %12
w: ||||
w: Ne- ver, *|ne- ver, *|Ne- ver, oh, ne- ver for|Thou art the way;|
w: ||||
 [CE] [Ec]2- [Ec]3 | [B,D] [DB]2- [DB]3 | D[DF][FA] [Ac][DB][DA] | [DG]3- [DG]2 z |] %16
w: ||||
w: Ne- ver, *|ne- ver, *|Ne- ver from Thee will we|stray. *|
w: ||||
V:2
 x6 | x6 | D x5 | x6 | x6 | x6 | D x5 | x6 || x6 | D x5 | D x5 | D x5 | x6 | x6 | D x5 | x6 |] %16
V:3
 [G,,G,][G,,G,][G,,G,] [G,,G,][G,,A,][G,,B,] | [D,A,][D,A,][D,A,] [D,A,]3 | %2
 [D,F,][D,A,][D,A,] [D,A,][D,B,][D,C] | [G,B,][G,B,][G,B,] [G,B,]3 | %4
 [G,,G,][G,,G,][G,,G,] [G,,G,][G,,A,][G,,B,] | [D,A,][D,A,][D,A,] [D,A,]3 | %6
 [D,F,][D,A,][D,A,] [D,A,][D,B,][D,C] | [G,B,]3- [G,B,]2 z || %8
 [C,G,] ([C,G,][C,G,][C,G,][C,G,][C,G,]) | [G,,G,] ([G,,G,][G,,G,] [G,,G,]3) | %10
 [D,F,][D,A,][D,A,] [D,A,][D,B,][D,C] | [G,B,][G,B,][G,B,] G,3 | %12
 [C,G,] ([C,G,][C,G,][C,G,][C,G,][C,G,]) | [G,,G,] ([G,,G,][G,,G,] [G,,G,]3) | %14
 [D,F,][D,A,][D,A,] [D,A,][D,B,][D,C] | [G,B,]3- [G,B,]2 z |] %16
V:4
 x6 | x6 | x6 | x6 | x6 | x6 | x6 | x6 || x6 | x6 | x6 | x3 G,3 | x6 | x6 | x6 | x6 |] %16

